X: 1
P: Khosidl
M: 2/4
L: 1/8
C: from John Chambers, mods. by T. Traub 5-9-2015
K: D
|: "D"D_EDE | FGF_E | "D"F2D2 | A,2D2 | "D"FGFG |"D"A_BAG | "D"A2 F2-|FD_ED || "D"DFA=c|"D" _BAGF | "Cm"GF_ED |"Cm"=C4 |
"Cm"=B,=CD_E |"Cm"FGF_E | "D"F_E D2-|"D"D4 :| |: D|"D"A4-|A3D |A4-|A3 D | "D"A3D|"D" A3D | "D"A2 A2|"D"A2 A2 || "D"A_BAB |"D"A3 G |
"D"FGFG |"D"A4 | "D"A_BAB |"D"A3 G | "D"FGF_E |"D"F_E D2 || "D"A_BAB |"D"A3 G | "D"FGA_B |"Cm"=c4 |
"Cm"=c_BBA |"Cm"AGGF | "D"FGF_E |"D"D3 :||:z| "D"F3_E |"D"D=CD_E | "D"FGF_E|"D" D4 | "D"D_BAG |"D"FGA_B |
"D"A4 |"D"d4 || "Cm"=c_BAG |FGA_B | =c_BAG FED=C | "Cm"=B,=CD_E |FGF_E | "D"F_E D2-|D4 :|

%%composerspace .10cm
